client/public/game_modes/bouncing_ball/frame9.svg

<svg xmlns="http://www.w3.org/2000/svg" width="437" height="483" fill="none"><path fill="#EDEDED" d="M239 241h20v20h-20v-20Zm0 20h20v20h-20v-20Zm20 20h20v20h-20v-20Zm0-20h20v20h-20v-20Zm20 20h20v20h-20v-20Zm0 20h20v20h-20v-20Zm-20 0h20v20h-20v-20Zm-20-20h20v20h-20v-20Zm-20-20h20v20h-20v-20Zm0-20h20v20h-20v-20Z"/><path stroke="#EDEDED" stroke-width="5" d="M239 241h20v20m-20-20v20m0-20h-20v20m40 0h-20m20 0v20m0-20h20v20m-40-20v20m0-20h-20m40 20h-20m20 0h20m-20 0v20m-20-20v20h20m-20-20h-20v-20m60 20v20m0-20h20v20m-20 0h-20m20 0h20m-20 0v20m-20-20v20h20m20-20v20h-20"/><path fill="#949494" d="M119 261h20v20h-20v-20Zm-20 20h20v20H99v-20Zm0 60h20v20H99v-20Zm0 20h20v20H99v-20Zm0 20h20v20H99v-20Zm100 60h20v20h-20v-20Zm60 0h20v20h-20v-20Zm-20 0h20v20h-20v-20Zm-20 0h20v20h-20v-20Zm-40-20h20v20h-20v-20Zm0 20h20v20h-20v-20Zm-20-20h20v20h-20v-20Zm0 20h20v20h-20v-20Zm-20-40h20v20h-20v-20Zm0 20h20v20h-20v-20Zm-20-40h20v20h-20v-20Zm0 20h20v20h-20v-20Zm0-40h20v20h-20v-20Zm-20-40h20v20H99v-20Zm0-20h20v20H99v-20Z"/><path stroke="#949494" stroke-width="5" d="M119 281h20v-20h-20v20Zm0 0H99v20m20-20v20m0 0H99m20 0v20m-20-20v20m0 20h20m-20 0v20m0-20v-20m20 20v20m0-20v-20m0 40H99m20 0v20m0-20h20v20m-40-20v20m20 0H99m20 0v20m0-20h20m-40 0v20h20m0 0h20m-20 0v20h20m60 20h20m-20 0v20m0-20v-20h-20m20 20h-20m40 0v20m0-20h20m-20 20h-20m20 0h20m-40 0h-20m80-20h20v20h-20m0-20v20m0-20h-20m20 20h-20m0-20v20m-60-40v20m0-20h-20m20 20v20m0-20h-20m20 20h-20v-20m0-20v20m0-20v-20h-20m20 20h-20m20 20h-20v-20m0-20v20m0-20v-20m-40-60h20"/><path fill="#D9D9D9" d="M139 241h20v20h-20v-20Zm40-20h20v20h-20v-20Zm0 20h20v20h-20v-20Zm20-20h20v20h-20v-20Zm40 0h20v20h-20v-20Zm20 0h20v20h-20v-20Zm0 20h20v20h-20v-20Zm20 0h20v20h-20v-20Zm0 20h20v20h-20v-20Zm20 0h20v20h-20v-20Zm0 60h20v20h-20v-20Zm0-20h20v20h-20v-20Zm0 40h20v20h-20v-20Zm0 40h20v20h-20v-20Zm0-100h20v20h-20v-20Zm0 80h20v20h-20v-20Zm20-40h20v20h-20v-20Zm0-20h20v20h-20v-20Zm0 40h20v20h-20v-20Zm0-60h20v20h-20v-20Zm0 80h20v20h-20v-20Zm-40-20h20v20h-20v-20Zm0-20h20v20h-20v-20Zm0 40h20v20h-20v-20Zm0 40h20v20h-20v-20Zm-20 20h20v20h-20v-20Zm60-40h20v20h-20v-20Zm-20 20h20v20h-20v-20Zm-20 20h20v20h-20v-20Zm-120-20h20v20h-20v-20Zm40 20h20v20h-20v-20Zm-40-60h20v20h-20v-20Zm-20 0h20v20h-20v-20Zm20-20h20v20h-20v-20Zm-20-20h20v20h-20v-20Zm0-20h20v20h-20v-20Zm20 0h20v20h-20v-20Zm-20-20h20v20h-20v-20Zm20 0h20v20h-20v-20Zm-20-20h20v20h-20v-20Zm20 60h20v20h-20v-20Zm0-60h20v20h-20v-20Zm-40 20h20v20h-20v-20Zm0 60h20v20h-20v-20Zm0-20h20v20h-20v-20Zm0-20h20v20h-20v-20Zm20 40h20v20h-20v-20Zm20 40h20v20h-20v-20Zm-20 0h20v20h-20v-20Zm40 0h20v20h-20v-20Zm0 20h20v20h-20v-20Zm20 0h20v20h-20v-20Zm20 20h20v20h-20v-20Zm20 0h20v20h-20v-20Zm40-40h20v20h-20v-20ZM179 261h20v20h-20v-20Zm0 40h20v20h-20v-20Zm0-20h20v20h-20v-20Zm0 40h20v20h-20v-20Zm0 40h20v20h-20v-20Zm0-20h20v20h-20v-20Zm20-80h20v20h-20v-20Zm0 20h20v20h-20v-20Zm0 40h20v20h-20v-20Zm0-20h20v20h-20v-20Zm0 40h20v20h-20v-20Zm0 40h20v20h-20v-20Zm0-20h20v20h-20v-20Zm20-80h20v20h-20v-20Zm0 20h20v20h-20v-20Zm0 40h20v20h-20v-20Zm0-20h20v20h-20v-20Zm0 40h20v20h-20v-20Zm0 40h20v20h-20v-20Zm0-20h20v20h-20v-20Zm20-80h20v20h-20v-20Zm0 20h20v20h-20v-20Zm0 40h20v20h-20v-20Zm0-20h20v20h-20v-20Zm0 60h20v20h-20v-20Zm0-20h20v20h-20v-20Zm20-60h20v20h-20v-20Zm0 20h20v20h-20v-20Zm0 40h20v20h-20v-20Zm0 20h20v20h-20v-20Zm0-40h20v20h-20v-20Zm-60-120h20v20h-20v-20Zm20-20h20v20h-20v-20Zm-60 0h20v20h-20v-20Zm0 20h20v20h-20v-20Z"/><path stroke="#D9D9D9" stroke-width="5" d="M159 241h-20v20m20-20v20m0-20h20m-20 0v-20h20m-20 40h-20m20 0v20m0-20h20m-40 0v20m40-60h20m-20 0v20m20-20v20m0-20h20m-20 20h-20m20 0v20m0-20h20m-40 0v20m20 0h-20m20 0v20m0-20h20m-40 0v20m40-60v20m0-20h20m-20 20v20m0-20h20m0-20h20m-20 0v20m20-20v20m0-20h20v20m-20 0h-20m20 0h20m-20 0v20h20m0-20v20m0-20h20v20m-20 0h20m-20 0v20h20m0-20v20m0-20h20v20m-20 0h20m-20 0v20m20-20v20m0-20h20v20m-40 20h20m-20 0v20m0-20v-20m0 20h-20m40 0v20m0-20v-20m0 20h20m-20 20h-20m20 0v20m0-20h20m-40 0v20m0-20h-20m20-40h20m0 0h20m-20 60h-20m20 0v20m0-20h20m-40 0v20m0-20h-20m20 20h20m-20 0v20m0-20h-20m40 0v20m0-20h20m-20 20h-20m20 0h20v-20m-20 20v20h-20m0-20h-20m20 0v20m40-100v20m0-20v-20m0 40v20m0 0v20m-60-40v20m0-20v-20m0 20h-20m20 20v20m0-20h-20m20-40h-20m20 60v20m0-20h-20m20 20v20m0-20h-20m40 20h-20m20 0v20h-20m0-20h-20m20 0v20m-20-20v20m0-20h-20m20 0v-20m20 40h-20m0 0h-20m-80-40h20m-20 0v20h20m-20-20v-20m0 20h-20v-20m40 20v20m0-20v-20m0 20h20m-20 20h20m0 0h20m-20 0v20h20m-20-20v-20m20 20v20m0-20v-20m0 20h20m-20 20h20m-80-80h20m-20 0v20m0-20h-20m20 0v-20m20 20v20m0-20v-20m0 20h20m-20 20h-20m20 0h20m-40 0h-20m0-20v20m0-20v-20m0 20h-20v-20m40 0h20m-20 0v-20m0 20h-20m40 0v-20m0 20h20m-60-20h20m-20 0v20m0-20v-20m0 20h-20m40 0v-20m0 20h20m-40 20h-20m20-40h20m-20 0v-20m0 20h-20m40 0h20m-20 0v-20m20 20v20m0-20v-20m0 20h20m-20 20h20m-60-40h20m-20 0h-20v20m40-20h20m0 0h20m-80 20v20m0 20v-20m80 60v20m0-20v-20m0 20h20m-20 20h20m0 0v-20m0 20h20m0 20v20m0-20v-20m-40-120v20m0-20h20m-20 20v20m0-20h20m-20 20v20m0-20h20m-20 20v20m0-20h20m-20 20h20m0-100v20m0 0v20m0-20h20v20m-20 0v20m0-20h20m-20 20v20m0-20h20m-20 20v20m0-20h20m-20 20v20m0-20h20m-20 20h20m0-80v20m0-20h20v20m-20 0v20m0-20h20m-20 20v20m0-20h20m-20 20v20m0-20h20m-20 20v20m0-20h20m-20 20h20m0-80v20m0 0v20m0 0v20m0 0v20"/></svg>

<svg width="437" height="483" viewBox="0 0 437 483" fill="none" xmlns="http://www.w3.org/2000/svg">
<path d="M239 241H259V261H239V241Z" fill="#EDEDED"/>
<path d="M239 261H259V281H239V261Z" fill="#EDEDED"/>
<path d="M259 281H279V301H259V281Z" fill="#EDEDED"/>
<path d="M259 261H279V281H259V261Z" fill="#EDEDED"/>
<path d="M279 281H299V301H279V281Z" fill="#EDEDED"/>
<path d="M279 301H299V321H279V301Z" fill="#EDEDED"/>
<path d="M259 301H279V321H259V301Z" fill="#EDEDED"/>
<path d="M239 281H259V301H239V281Z" fill="#EDEDED"/>
<path d="M219 261H239V281H219V261Z" fill="#EDEDED"/>
<path d="M219 241H239V261H219V241Z" fill="#EDEDED"/>
<path d="M239 241H259V261M239 241V261M239 241H219V261M259 261H239M259 261V281M259 261H279V281M239 261V281M239 261H219M259 281H239M259 281H279M259 281V301M239 281V301H259M239 281H219V261M279 281V301M279 281H299V301M279 301H259M279 301H299M279 301V321M259 301V321H279M299 301V321H279" stroke="#EDEDED" stroke-width="5"/>
<path d="M119 261H139V281H119V261Z" fill="#949494"/>
<path d="M99 281H119V301H99V281Z" fill="#949494"/>
<path d="M99 341H119V361H99V341Z" fill="#949494"/>
<path d="M99 361H119V381H99V361Z" fill="#949494"/>
<path d="M99 381H119V401H99V381Z" fill="#949494"/>
<path d="M199 441H219V461H199V441Z" fill="#949494"/>
<path d="M259 441H279V461H259V441Z" fill="#949494"/>
<path d="M239 441H259V461H239V441Z" fill="#949494"/>
<path d="M219 441H239V461H219V441Z" fill="#949494"/>
<path d="M179 421H199V441H179V421Z" fill="#949494"/>
<path d="M179 441H199V461H179V441Z" fill="#949494"/>
<path d="M159 421H179V441H159V421Z" fill="#949494"/>
<path d="M159 441H179V461H159V441Z" fill="#949494"/>
<path d="M139 401H159V421H139V401Z" fill="#949494"/>
<path d="M139 421H159V441H139V421Z" fill="#949494"/>
<path d="M119 381H139V401H119V381Z" fill="#949494"/>
<path d="M119 401H139V421H119V401Z" fill="#949494"/>
<path d="M119 361H139V381H119V361Z" fill="#949494"/>
<path d="M99 321H119V341H99V321Z" fill="#949494"/>
<path d="M99 301H119V321H99V301Z" fill="#949494"/>
<path d="M119 281H139V261H119V281ZM119 281H99V301M119 281V301M119 301H99M119 301V321M99 301V321M99 341H119M99 341V361M99 341V321M119 341V361M119 341V321M119 361H99M119 361V381M119 361H139V381M99 361V381M119 381H99M119 381V401M119 381H139M99 381V401H119M119 401H139M119 401V421H139M199 441H219M199 441V461M199 441V421H179M199 441H179M219 441V461M219 441H239M219 461H199M219 461H239M199 461H179M259 441H279V461H259M259 441V461M259 441H239M259 461H239M239 441V461M179 421V441M179 421H159M179 441V461M179 441H159M179 461H159V441M159 421V441M159 421V401H139M159 421H139M159 441H139V421M139 401V421M139 401V381M99 321H119" stroke="#949494" stroke-width="5"/>
<path d="M139 241H159V261H139V241Z" fill="#D9D9D9"/>
<path d="M179 221H199V241H179V221Z" fill="#D9D9D9"/>
<path d="M179 241H199V261H179V241Z" fill="#D9D9D9"/>
<path d="M199 221H219V241H199V221Z" fill="#D9D9D9"/>
<path d="M239 221H259V241H239V221Z" fill="#D9D9D9"/>
<path d="M259 221H279V241H259V221Z" fill="#D9D9D9"/>
<path d="M259 241H279V261H259V241Z" fill="#D9D9D9"/>
<path d="M279 241H299V261H279V241Z" fill="#D9D9D9"/>
<path d="M279 261H299V281H279V261Z" fill="#D9D9D9"/>
<path d="M299 261H319V281H299V261Z" fill="#D9D9D9"/>
<path d="M299 321H319V341H299V321Z" fill="#D9D9D9"/>
<path d="M299 301H319V321H299V301Z" fill="#D9D9D9"/>
<path d="M299 341H319V361H299V341Z" fill="#D9D9D9"/>
<path d="M299 381H319V401H299V381Z" fill="#D9D9D9"/>
<path d="M299 281H319V301H299V281Z" fill="#D9D9D9"/>
<path d="M299 361H319V381H299V361Z" fill="#D9D9D9"/>
<path d="M319 321H339V341H319V321Z" fill="#D9D9D9"/>
<path d="M319 301H339V321H319V301Z" fill="#D9D9D9"/>
<path d="M319 341H339V361H319V341Z" fill="#D9D9D9"/>
<path d="M319 281H339V301H319V281Z" fill="#D9D9D9"/>
<path d="M319 361H339V381H319V361Z" fill="#D9D9D9"/>
<path d="M279 341H299V361H279V341Z" fill="#D9D9D9"/>
<path d="M279 321H299V341H279V321Z" fill="#D9D9D9"/>
<path d="M279 361H299V381H279V361Z" fill="#D9D9D9"/>
<path d="M279 401H299V421H279V401Z" fill="#D9D9D9"/>
<path d="M259 421H279V441H259V421Z" fill="#D9D9D9"/>
<path d="M319 381H339V401H319V381Z" fill="#D9D9D9"/>
<path d="M299 401H319V421H299V401Z" fill="#D9D9D9"/>
<path d="M279 421H299V441H279V421Z" fill="#D9D9D9"/>
<path d="M159 401H179V421H159V401Z" fill="#D9D9D9"/>
<path d="M199 421H219V441H199V421Z" fill="#D9D9D9"/>
<path d="M159 361H179V381H159V361Z" fill="#D9D9D9"/>
<path d="M139 361H159V381H139V361Z" fill="#D9D9D9"/>
<path d="M159 341H179V361H159V341Z" fill="#D9D9D9"/>
<path d="M139 321H159V341H139V321Z" fill="#D9D9D9"/>
<path d="M139 301H159V321H139V301Z" fill="#D9D9D9"/>
<path d="M159 301H179V321H159V301Z" fill="#D9D9D9"/>
<path d="M139 281H159V301H139V281Z" fill="#D9D9D9"/>
<path d="M159 281H179V301H159V281Z" fill="#D9D9D9"/>
<path d="M139 261H159V281H139V261Z" fill="#D9D9D9"/>
<path d="M159 321H179V341H159V321Z" fill="#D9D9D9"/>
<path d="M159 261H179V281H159V261Z" fill="#D9D9D9"/>
<path d="M119 281H139V301H119V281Z" fill="#D9D9D9"/>
<path d="M119 341H139V361H119V341Z" fill="#D9D9D9"/>
<path d="M119 321H139V341H119V321Z" fill="#D9D9D9"/>
<path d="M119 301H139V321H119V301Z" fill="#D9D9D9"/>
<path d="M139 341H159V361H139V341Z" fill="#D9D9D9"/>
<path d="M159 381H179V401H159V381Z" fill="#D9D9D9"/>
<path d="M139 381H159V401H139V381Z" fill="#D9D9D9"/>
<path d="M179 381H199V401H179V381Z" fill="#D9D9D9"/>
<path d="M179 401H199V421H179V401Z" fill="#D9D9D9"/>
<path d="M199 401H219V421H199V401Z" fill="#D9D9D9"/>
<path d="M219 421H239V441H219V421Z" fill="#D9D9D9"/>
<path d="M239 421H259V441H239V421Z" fill="#D9D9D9"/>
<path d="M279 381H299V401H279V381Z" fill="#D9D9D9"/>
<path d="M179 261H199V281H179V261Z" fill="#D9D9D9"/>
<path d="M179 301H199V321H179V301Z" fill="#D9D9D9"/>
<path d="M179 281H199V301H179V281Z" fill="#D9D9D9"/>
<path d="M179 321H199V341H179V321Z" fill="#D9D9D9"/>
<path d="M179 361H199V381H179V361Z" fill="#D9D9D9"/>
<path d="M179 341H199V361H179V341Z" fill="#D9D9D9"/>
<path d="M199 261H219V281H199V261Z" fill="#D9D9D9"/>
<path d="M199 281H219V301H199V281Z" fill="#D9D9D9"/>
<path d="M199 321H219V341H199V321Z" fill="#D9D9D9"/>
<path d="M199 301H219V321H199V301Z" fill="#D9D9D9"/>
<path d="M199 341H219V361H199V341Z" fill="#D9D9D9"/>
<path d="M199 381H219V401H199V381Z" fill="#D9D9D9"/>
<path d="M199 361H219V381H199V361Z" fill="#D9D9D9"/>
<path d="M219 281H239V301H219V281Z" fill="#D9D9D9"/>
<path d="M219 301H239V321H219V301Z" fill="#D9D9D9"/>
<path d="M219 341H239V361H219V341Z" fill="#D9D9D9"/>
<path d="M219 321H239V341H219V321Z" fill="#D9D9D9"/>
<path d="M219 361H239V381H219V361Z" fill="#D9D9D9"/>
<path d="M219 401H239V421H219V401Z" fill="#D9D9D9"/>
<path d="M219 381H239V401H219V381Z" fill="#D9D9D9"/>
<path d="M239 301H259V321H239V301Z" fill="#D9D9D9"/>
<path d="M239 321H259V341H239V321Z" fill="#D9D9D9"/>
<path d="M239 361H259V381H239V361Z" fill="#D9D9D9"/>
<path d="M239 341H259V361H239V341Z" fill="#D9D9D9"/>
<path d="M239 401H259V421H239V401Z" fill="#D9D9D9"/>
<path d="M239 381H259V401H239V381Z" fill="#D9D9D9"/>
<path d="M259 321H279V341H259V321Z" fill="#D9D9D9"/>
<path d="M259 341H279V361H259V341Z" fill="#D9D9D9"/>
<path d="M259 381H279V401H259V381Z" fill="#D9D9D9"/>
<path d="M259 401H279V421H259V401Z" fill="#D9D9D9"/>
<path d="M259 361H279V381H259V361Z" fill="#D9D9D9"/>
<path d="M199 241H219V261H199V241Z" fill="#D9D9D9"/>
<path d="M219 221H239V241H219V221Z" fill="#D9D9D9"/>
<path d="M159 221H179V241H159V221Z" fill="#D9D9D9"/>
<path d="M159 241H179V261H159V241Z" fill="#D9D9D9"/>
<path d="M159 241H139V261M159 241V261M159 241H179M159 241V221H179M159 261H139M159 261V281M159 261H179M139 261V281M179 221H199M179 221V241M199 221V241M199 221H219M199 241H179M199 241V261M199 241H219M179 241V261M199 261H179M199 261V281M199 261H219M179 261V281M219 221V241M219 221H239M219 241V261M219 241H239M239 221H259M239 221V241M259 221V241M259 221H279V241M259 241H239M259 241H279M259 241V261H279M279 241V261M279 241H299V261M279 261H299M279 261V281H299M299 261V281M299 261H319V281M299 281H319M299 281V301M319 281V301M319 281H339V301M299 321H319M299 321V341M299 321V301M299 321H279M319 321V341M319 321V301M319 321H339M319 341H299M319 341V361M319 341H339M299 341V361M299 341H279M299 301H319M319 301H339M319 361H299M319 361V381M319 361H339M299 361V381M299 361H279M299 381H319M299 381V401M299 381H279M319 381V401M319 381H339M319 401H299M319 401H339V381M319 401V421H299M299 401H279M299 401V421M339 321V341M339 321V301M339 341V361M339 361V381M279 341V361M279 341V321M279 341H259M279 361V381M279 361H259M279 321H259M279 381V401M279 381H259M279 401V421M279 401H259M299 421H279M299 421V441H279M279 421H259M279 421V441M259 421V441M259 421H239M259 421V401M279 441H259M259 441H239M159 401H179M159 401V421H179M159 401V381M159 401H139V381M179 401V421M179 401V381M179 401H199M179 421H199M199 421H219M199 421V441H219M199 421V401M219 421V441M219 421V401M219 421H239M219 441H239M159 361H179M159 361V381M159 361H139M159 361V341M179 361V381M179 361V341M179 361H199M179 381H159M179 381H199M159 381H139M139 361V381M139 361V341M139 361H119V341M159 341H179M159 341V321M159 341H139M179 341V321M179 341H199M139 321H159M139 321V341M139 321V301M139 321H119M159 321V301M159 321H179M139 341H119M139 301H159M139 301V281M139 301H119M159 301H179M159 301V281M179 301V321M179 301V281M179 301H199M179 321H199M139 281H159M139 281H119V301M159 281H179M179 281H199M119 301V321M119 341V321M199 381V401M199 381V361M199 381H219M199 401H219M219 401V381M219 401H239M239 421V441M239 421V401M199 281V301M199 281H219M199 301V321M199 301H219M199 321V341M199 321H219M199 341V361M199 341H219M199 361H219M219 261V281M219 281V301M219 281H239V301M219 301V321M219 301H239M219 321V341M219 321H239M219 341V361M219 341H239M219 361V381M219 361H239M219 381H239M239 301V321M239 301H259V321M239 321V341M239 321H259M239 341V361M239 341H259M239 361V381M239 361H259M239 381V401M239 381H259M239 401H259M259 321V341M259 341V361M259 361V381M259 381V401" stroke="#D9D9D9" stroke-width="5"/>
</svg>
